dist/img/sprites/tg.svg

<svg width="30" height="26" viewBox="0 0 30 26"  xmlns="http://www.w3.org/2000/svg">
<path d="M29.9458 1.00938C29.8375 0.68949 29.7083 0.60531 29.5082 0.525338C29.0706 0.361187 28.3288 0.609519 28.3288 0.609519C28.3288 0.609519 2.03477 10.1556 0.534402 11.212C0.209322 11.4393 0.100962 11.574 0.0509495 11.7297C-0.207448 12.4789 0.601085 12.8115 0.601085 12.8115L7.37776 15.0422C7.37776 15.0422 7.63199 15.0801 7.71951 15.0212C9.26155 14.0363 23.2317 5.13 24.036 4.83116C24.1652 4.79328 24.2569 4.83116 24.2319 4.92376C23.911 6.06861 11.7747 16.9573 11.7747 16.9573C11.7747 16.9573 11.7288 17.0163 11.6997 17.0836L11.683 17.0752L11.0495 23.8643C11.0495 23.8643 10.7828 25.9436 12.8416 23.8643C14.2961 22.3954 15.7006 21.1664 16.405 20.5729C18.7347 22.1976 21.2437 23.9948 22.3273 24.9334C22.8691 25.4048 23.3234 25.4806 23.6984 25.468C24.7237 25.4301 25.0113 24.2895 25.0113 24.2895C25.0113 24.2895 29.8041 4.81433 29.9625 2.20474C29.9792 1.94799 30 1.78804 30 1.61127C30 1.36714 29.9792 1.12302 29.9417 1.00938H29.9458Z"/>
</svg>

<svg width="30" height="26" viewBox="0 0 30 26" xmlns="http://www.w3.org/2000/svg"><path d="M29.946 1.01c-.109-.32-.238-.405-.438-.485-.437-.164-1.18.085-1.18.085S2.036 10.156.535 11.212c-.325.227-.433.362-.483.518-.258.749.55 1.082.55 1.082l6.777 2.23s.254.038.342-.02c1.542-.986 15.512-9.892 16.316-10.19.13-.039.22 0 .196.092-.321 1.145-12.457 12.033-12.457 12.033s-.046.06-.075.127l-.017-.009-.633 6.79s-.267 2.079 1.792 0a56.684 56.684 0 013.563-3.292c2.33 1.625 4.839 3.422 5.922 4.36.542.472.996.548 1.371.535 1.026-.038 1.313-1.178 1.313-1.178s4.793-19.476 4.951-22.085c.017-.257.038-.417.038-.594 0-.244-.02-.488-.058-.602h.004z"/></svg>
